X:8
T:No.70 Con Cassidy's Jig
C:jig
M:6/8
L:1/8
K:G
BAB cBc|dgg d2g|fed cAF|
Ggg d2c|BAB cBc|dgg d2g|
fed cAF|[1GAF G2A:|[2GAF GBd||
gdd fdd|efg d2c|BAG Aag|
fed efg|agf gfe|fed faf|
gfe def|[1gGG GBd:|[2gGGG2A||
